STORJNode/storjnode.svg

<svg width="46px" height="29px" viewBox="0 0 46 29" xmlns="http://www.w3.org/2000/svg">
    <g id="Page-1" stroke="none" stroke-width="1" fill="none" fill-rule="evenodd">
        <g id="storj-logo-mark-color" fill="#0052FF" fill-rule="nonzero">
            <path d="M22.752,0 C35.3176,0 45.504,10.1864 45.504,22.752 C45.504,24.8855 45.2103,26.9504 44.6612,28.9086 L40.3217,28.9086 C40.9969,26.9814 41.364,24.9096 41.364,22.752 C41.364,12.4729 33.0311,4.13997 22.752,4.13997 C12.4729,4.13997 4.13997,12.4729 4.13997,22.752 C4.13997,23.4578 4.17926,24.1545 4.25578,24.8399 L9.67237,24.8399 L30.0505,24.8398 C31.7456,24.8398 33.1198,23.4657 33.1198,21.7705 C33.1198,20.0754 31.7456,18.7012 30.0515,18.7012 L30.0097,18.7013 L28.219,18.7021 L27.9605,16.9301 C27.5849,14.3557 25.3645,12.4199 22.7341,12.4199 C20.3731,12.4199 18.3173,13.9833 17.6641,16.2137 L17.2283,17.7019 L15.6776,17.7019 L15.2037,17.7019 C13.6268,17.7019 12.3485,18.9802 12.3485,20.5571 C12.3485,20.6049 12.3497,20.6526 12.3521,20.6999 L8.21,20.6999 C8.20965,20.6824 8.20936,20.6649 8.20914,20.6473 L8.20856,20.5571 C8.20856,17.0415 10.802,14.1316 14.1801,13.6363 L14.2356,13.6286 L14.2683,13.5609 C15.8018,10.426 18.9956,8.32858 22.608,8.28077 L22.7341,8.27994 C26.8641,8.27994 30.4251,10.9525 31.6778,14.7296 L31.6834,14.7471 L31.7829,14.7708 C34.8907,15.5374 37.2047,18.3197 37.2588,21.6513 L37.2597,21.7705 C37.2597,25.407 34.5673,28.4146 31.0672,28.9086 L0.842748,28.9086 C0.293654,26.9504 0,24.8855 0,22.752 C0,10.1864 10.1864,0 22.752,0 Z" id="Path" />
        </g>
    </g>
</svg>

<svg viewBox="0 0 46 29" xmlns="http://www.w3.org/2000/svg"><path fill="#0052FF" d="M22.752 0c12.566 0 22.752 10.186 22.752 22.752a22.8 22.8 0 0 1-.843 6.157h-4.34a18.6 18.6 0 0 0 1.043-6.157c0-10.28-8.333-18.612-18.612-18.612-10.28 0-18.612 8.333-18.612 18.612q.001 1.059.116 2.088H30.05a3.07 3.07 0 0 0 0-6.139h-.041l-1.791.001-.259-1.772a5.284 5.284 0 0 0-10.296-.716l-.436 1.488h-2.024a2.855 2.855 0 0 0-2.852 2.998H8.21v-.053l-.001-.09a7 7 0 0 1 5.971-6.92l.056-.008.032-.068a9.43 9.43 0 0 1 8.34-5.28l.126-.001a9.43 9.43 0 0 1 8.944 6.45l.005.017.1.024a7.21 7.21 0 0 1 5.476 6.88v.12a7.21 7.21 0 0 1-6.192 7.138H.843A22.8 22.8 0 0 1 0 22.752C0 10.186 10.186 0 22.752 0"/></svg>
